!!!COM: Palestrina, Giovanni Perluigi da
!!!OPR: Missa Sicut lilium inter spinas
!!!OTL: Agnus
**kern	**kern	**kern	**kern	**kern
*Ibass	*Itenor	*Itenor	*Icalto	*Icant
!Bassus	!Tenor 2	!Tenor 1	!Altus	!Cantus
*clefF4	*clefGv2	*clefGv2	*clefG2	*clefG2
*k[]	*k[]	*k[]	*k[]	*k[]
*A:aeo	*A:aeo	*A:aeo	*A:aeo	*A:aeo
*M4/2	*M4/2	*M4/2	*M4/2	*M4/2
=1	=1	=1	=1	=1
0A	0r	0r	0r	0r
=2	=2	=2	=2	=2
1B-	1r	0r	0r	0r
1A	[1e	.	.	.
=3	=3	=3	=3	=3
1.A	1e]	0r	0a	0r
.	1f	.	.	.
2F	.	.	.	.
=4	=4	=4	=4	=4
1G	2e	0r	1b-	1r
.	1d	.	.	.
[1A	.	.	1a	[1ee
.	4c#	.	.	.
.	4B	.	.	.
=5	=5	=5	=5	=5
1A]	1c#	0r	1.a	1ee]
1D	1d	.	.	1ff
.	.	.	2f	.
=6	=6	=6	=6	=6
2r	2.A	0r	2a	1ee
2A	.	.	2.cc	.
.	4B	.	.	.
2A	2.c	.	.	[1ee
.	.	.	4b	.
[2c	.	.	2a	.
.	4d	.	.	.
=7	=7	=7	=7	=7
4c]	1e	0r	2g	2ee]
4B	.	.	.	.
2A	.	.	2a	2cc
2G	2r	.	2b-	2dd
2A	2c	.	4a	[2ff
.	.	.	4g	.
=8	=8	=8	=8	=8
1B-	2d	0r	2.f	4ff]
.	.	.	.	4ee
.	1f	.	.	2dd
.	.	.	4g	.
1A	.	.	2.a	2.cc
.	4e	.	.	.
.	4d	.	4b	4dd
=9	=9	=9	=9	=9
0r	2.c	0e	1cc	4ee
.	.	.	.	4ff
.	.	.	.	2.gg
.	4d	.	.	.
.	2e	.	2b	.
.	.	.	.	4ff
.	2c	.	2cc	[2ee
=10	=10	=10	=10	=10
0r	1d	1f	[0a	4ee]
.	.	.	.	4dd
.	.	.	.	1dd
.	1A	1e	.	.
.	.	.	.	4cc
.	.	.	.	4b
=11	=11	=11	=11	=11
0A	2r	1.e	0a]	4cc
.	.	.	.	4dd
.	2c	.	.	4ee
.	.	.	.	4dd
.	2e	.	.	4cc
.	.	.	.	4b
.	[2f	2c	.	4a
.	.	.	.	4g
=12	=12	=12	=12	=12
1B-	4f]	2d	0r	2.f
.	4e	.	.	.
.	2d	1f	.	.
.	.	.	.	4g
1A	2.c	.	.	[1a
.	.	4e	.	.
.	4d	4d	.	.
=13	=13	=13	=13	=13
1.A	4e	2.c	1r	0a]
.	4f	.	.	.
.	2e	.	.	.
.	.	4d	.	.
.	2c	2e	2r	.
2F	[2d	2f	2a	.
=14	=14	=14	=14	=14
2G	2d]	1e	2b-	2r
2A	2c#	.	1a	2ee
2F	1d	1r	.	2ff
2B-	.	.	2g	[2dd
=15	=15	=15	=15	=15
1A	2r	0r	2f	2dd]
.	1A	.	2e	2cc
2.D	.	.	4d	[1ff
.	.	.	4e	.
.	[2d	.	4f	.
4E	.	.	4g	.
=16	=16	=16	=16	=16
4F	2d]	2r	1a	2ff]
4G	.	.	.	.
2A	2c#	2e	.	2ee
1D	2d	2f	2.a	2.dd
.	[2f	[2d	.	.
.	.	.	4g	4cc
=17	=17	=17	=17	=17
0r	2f]	2d]	2f	4a
.	.	.	.	4b
.	2e	2c	2g	1cc
.	1d	1f	2a	.
.	.	.	2f	2b
=18	=18	=18	=18	=18
2r	1c	1e	2g	1cc
2A	.	.	2a	.
2B-	1r	2.d	2f	[1dd
[2G	.	.	[2b-	.
.	.	4c	.	.
=19	=19	=19	=19	=19
2G]	0r	4d	4b-]	1dd]
.	.	4e	4g	.
2F	.	2.f	2a	.
1B-	.	.	2f	2r
.	.	4e	.	.
.	.	[2d	2g	2dd
=20	=20	=20	=20	=20
1A	2r	2d]	1a	2ff
.	2e	2c#	.	2ee
1D	2f	1d	2r	2dd
.	[2d	.	[2a	[2ff
=21	=21	=21	=21	=21
1A	2d]	0r	2a]	2ff]
.	2c	.	1cc	2ee
1r	1f	.	.	2.a
.	.	.	[2a	.
.	.	.	.	4b
=22	=22	=22	=22	=22
1E	1e	2r	2a]	2cc
.	.	2e	2g#	2b
2F	1A	2c	2.a	4a
.	.	.	.	4g
[2D	.	[2d	.	4f
.	.	.	4g	4g
=23	=23	=23	=23	=23
2D]	1A	2d]	2f	4a
.	.	.	.	4b
2C	.	2e	4e	1cc
.	.	.	4d	.
2F	1r	1A	2c	.
2F	.	.	2d	4b
.	.	.	.	4a
=24	=24	=24	=24	=24
0E	0r	2B	1e	2g#
.	.	2c	.	1a
.	.	1B	1e	.
.	.	.	.	2g#
=25	=25	=25	=25	=25
0A	0e	2r	1r	1a
.	.	1c#	.	.
.	.	.	[1a	1r
.	.	2c#	.	.
=26	=26	=26	=26	=26
0r	1f#	1d	1a]	0dd
.	1g	2G	1b	.
.	.	[2g	.	.
=27	=27	=27	=27	=27
0r	1c	4g]	1cc	1ee
.	.	4e	.	.
.	.	1a	.	.
.	[1d	.	1a	2.ff
.	.	2f	.	.
.	.	.	.	4ee
=28	=28	=28	=28	=28
0G	2d]	1g	2.b-	2dd
.	2.e	.	.	2cc
.	.	.	4a	.
.	.	1r	2g	1b-
.	4d	.	.	.
.	[2d	.	2f	.
=29	=29	=29	=29	=29
1A	2d]	0r	1e	1a
.	2c#	.	.	.
2B-	1d	.	2d	1r
2G	.	.	2g	.
=30	=30	=30	=30	=30
2.B-	2r	0d	4f	0r
.	.	.	4e	.
.	1G	.	4d	.
4A	.	.	4c	.
2G	.	.	4B-	.
.	.	.	4c	.
2F	2A	.	[2d	.
=31	=31	=31	=31	=31
1E	2B-	1e	2d]	0r
.	2G	.	2c#	.
[1D	1A	2f	1d	.
.	.	2d	.	.
=32	=32	=32	=32	=32
1D]	2A	2.f	0a	1r
.	4d	.	.	.
.	4e	4e	.	.
1r	4f	2d	.	[1dd
.	4g	.	.	.
.	[2a	2c	.	.
=33	=33	=33	=33	=33
0r	4a]	1B	1b	1dd]
.	4g#	.	.	.
.	4g#	.	.	.
.	4f#	.	.	.
.	2a	1A	1cc	1ee
.	2a	.	.	.
=34	=34	=34	=34	=34
0r	1r	1d	1a	2ff
.	.	.	.	2dd
.	[1d	1r	2.dd	2.ff
.	.	.	4cc	4ee
=35	=35	=35	=35	=35
0r	1d]	0r	2b	2dd
.	.	.	1a	2cc
.	1e	.	.	1b
.	.	.	2g#	.
=36	=36	=36	=36	=36
1r	2f	2r	0a	1a
.	2d	1f	.	.
[1D	2.f	.	.	2.dd
.	.	2d	.	.
.	4e	.	.	4cc
=37	=37	=37	=37	=37
1D]	2d	1f	0r	2b
.	2c	.	.	1a
1E	1B	2.e	.	.
.	.	.	.	2g#
.	.	4d	.	.
=38	=38	=38	=38	=38
2F	[0A	4c	2r	[0a
.	.	4A	.	.
2D	.	2.d	1f	.
2.F	.	.	.	.
.	.	4c	.	.
.	.	[2f	2c	.
4E	.	.	.	.
=39	=39	=39	=39	=39
2D	1A_	2f]	2d	1a_
2C#	.	2e	2e	.
1D	1A_	1d	1f	1a_
=40	=40	=40	=40	=40
0A	0A]	0c#	0e	0a]
==	==	==	==	==
*-	*-	*-	*-	*-
!!!CDT: 1525/^1526/-1594/2/2
!!!OCY: Italia
!!!AGN: Mass (Parody)
!!!AST: renaissance, vocal
!!!ASW: Motet 1569 (Palestrina)
!!!PWK: Masses, Book 5
!!!RNB: Cadence finals: D
!!!YOR: Le Opere Complete, v. 15, p. 130
!!!YOO: Rome, Italy: Fratelli Scalera
!!!END: 1992//
!!!EED: John Miller
!!!YEC: Copyright 2000, John Miller
!!!YEN: United States of America
!!!YEM: Rights to all derivative electronic formats reserved.
!!!YEM: Refer to licensing agreement for further details.
!!!YEM: This file must be accompanied by the licensing agreement.
!!!YEM: A copy of the licensing agreement may be found at http://www.music-cog.ohio-state.edu/HumdrumDatabases/Palestrina/license.txt
!!!EMD: converted to Humdrum by Bret Aarden
